X: 25
T:Murphy's Nails
M:2/2
L:1/16
Q:240
C:Michael P. Dugger
R:Polka
K:D
d2ed c2d2 | A2F2 D4 | e2c2 A2Bc | d2e2 f2e2 | d2ed c2d2 | A2F2 D4 | e2c2 A2Bc | d4 d4 :| 
f2d2 fga2 | b2g2 e2d2 | cBA2 B2c2 | d2e2 f2e2 | f2d2 fga2 | b2g2 e2d2 | cBA2 B2c2 | d4 d4 :|
